X: 2
T: The Steeplechase
R: reel
M: 4/4
L: 1/8
K: Cmaj
c2 CD E~G3 | Addc dfed | ~c3 G ABcA | G2 EC DCA,C |
G, ~C3 E ~G3 | Addc dfed | cBcG A2 cA |1 GEDF EC C2 :|2 GEDF EGAB |
~c2 ec gcea | gedc AGAB | ~c2 ec gcea | gecd AGAB |
~c2 ec gcea | gedc A ~e3| e~g3 e~a3 |1 gedg (3efg AB :|2 gedg (3efg AB |


Tune 2281	Setting 24898

